X:1
T:n
T:Dry Hands (Minecraft) 
C:C418
%%score ( 1 2 ) 3
L:1/8
Q:1/4=96
M:4/4
K:Bb
V:1 treble nm="Ukulele" snm="Uk."
V:2 treble 
V:3 tab stafflines=4 strings=G4,C4,E4,A4 nm="Ukulele" snm="Uk."
V:1
 !1!!2!!3![FBd]4 e4 | [EB]4 c4 | !3![Bdf]4 !3!e2 !3!d2 | !2!!3![EGc]4 !1!D4 | G!2!B f2 e2 !3!d2 | %5
 [DFc]4 C4 | [FBd]8 | [DFc]8 | G6 B2 |"^½ BI" [Fc]4 B2 [CF]2 | G4 F4 |"^Composed by C418" [CG]8 | %12
 [Ef]6 ed | [Gc]2"^½ BI" [FB]d- d3 F | [CG]2 [Ed]6 | [CG]2 !fermata![Fcf]6 :| [FBd]4 e4 | %17
 [EB]4 c4 | [DAdf]8 | (5:4:5DGcdg- !fermata!g4 |] %20
V:2
 x8 | x8 | x8 | x8 | D8 | x8 | x8 | x8 | D8 | x8 | C8 | x8 | x8 | x8 | x8 | x8 :| x8 | x8 | x8 | %19
 x8 |] %20
V:3
 [!3!F!4!B!1!d]4 !1!e4 | [!3!E!4!B]4 !1!c4 | [!2!B!4!d!1!f]4 !1!e2 !1!d2 | [!3!E!4!G!1!c]4 !3!D4 | %4
 [!3!D!4!G]!4!B !1!f2 !1!e2 !1!d2 | [!3!D!2!F!1!c]4 !3!C4 | [!3!F!4!B!1!d]8 | [!3!D!2!F!1!c]8 | %8
 [!3!D!4!G]6 !1!B2 | [!2!F!1!c]4 !1!B2 [!3!C!2!F]2 | [!3!C!4!G]4 !2!F4 | [!3!C!4!G]8 | %12
 [!3!E!1!f]6 !1!e!1!d | [!4!G!1!c]2 [!2!F!1!B]!1!d- !1!d3 !2!F | [!3!C!4!G]2 [!3!E!4!d]6 | %15
 [!3!C!4!G]2 [!3!F!4!c!1!f]6 :| [!3!F!4!B!1!d]4 !1!e4 | [!3!E!4!B]4 !1!c4 | [!3!D!2!A!4!d!1!f]8 | %19
 (5:4:5!3!D!4!G!open!!3!c!2!d!open!!4!g- !4!g4 |] %20

